X: 31888
T: Peach Blossoms
R: barndance
M: 4/4
K: Dmajor
|:(3dcB|A>df>d A>df>d|B2 g2 g2 e>d|c>ea>e c>ea>^g|b2 a2 f2 d>B|
A>df>d A>d (3fed|B2 g>f g2 e>d|c>eb>a ^g>a (3=gfe|1 d2 f2 d2:|2 d2 d2 d>D||
|:(3EFG|A2 A2 (3Bcd d>e|f>dA>F A2 A2|c>BG>E c2 B2|B>A (3fed A2 A2|
A2 (3FGA B>cd>e|f>dA>F A2 A2|d>cB>c d>gf>e|d2 (3ddd d2:|
K: Gmaj
|:d>c|(3BcB G>B d>g (3bag|a2 e2 e2 a>g|(3fgf c2 c>e (3fed|(3efe d2 B2 d>c|
B>DG>B d>gb>g|a2 e2 e2 a>g|f>dc>A a>f (3dcA|1 G2 g2 G>d:|2 G2 g2 G4||

